svg/fluentui-system-icons/ic_fluent_arrow_outline_up_right_48_regular.svg

<svg width="48" height="48" viewBox="0 0 48 48" fill="none" xmlns="http://www.w3.org/2000/svg">
<path d="M38.1457 4.04193C41.5046 3.65118 44.3515 6.49132 43.9687 9.85109L41.3039 33.2386C40.9033 36.7545 36.6325 38.2696 34.1057 35.792L31.2632 33.0048L21.7985 42.4653C19.7468 44.5161 16.4208 44.5142 14.3714 42.4612L5.5383 33.6124C3.49114 31.5616 3.49263 28.24 5.54163 26.1911L14.9935 16.7393L12.2446 13.9877C9.73384 11.4744 11.2315 7.17294 14.7602 6.76243L38.1457 4.04193ZM41.4847 9.56808C41.6852 7.8082 40.194 6.3205 38.4346 6.52518L15.0491 9.24569C13.5961 9.41472 12.9794 11.1859 14.0132 12.2208L17.6452 15.8563C18.1329 16.3446 18.1327 17.1357 17.6447 17.6237L7.30938 27.9589C6.2361 29.0321 6.23532 30.772 7.30764 31.8462L16.1407 40.695C17.2142 41.7704 18.9564 41.7714 20.0311 40.6972L30.371 30.3618C30.8558 29.8772 31.6404 29.8735 32.1299 30.3534L35.856 34.007C36.8965 35.0271 38.655 34.4033 38.82 32.9555L41.4847 9.56808Z" fill="#212121"/>
</svg>

<svg xmlns="http://www.w3.org/2000/svg" width="48" height="48"><path d="M38.146 4.042c3.359-.39 6.206 2.45 5.823 5.81l-2.665 23.387c-.4 3.516-4.672 5.03-7.198 2.553l-2.843-2.787-9.465 9.46a5.25 5.25 0 0 1-7.427-.004l-8.833-8.849a5.25 5.25 0 0 1 .004-7.42l9.451-9.453-2.748-2.751c-2.511-2.514-1.013-6.815 2.515-7.226l23.386-2.72Zm3.339 5.526a2.75 2.75 0 0 0-3.05-3.043l-23.386 2.72c-1.453.17-2.07 1.94-1.036 2.976l3.632 3.635a1.25 1.25 0 0 1 0 1.768L7.309 27.959a2.75 2.75 0 0 0-.001 3.887l8.833 8.849a2.75 2.75 0 0 0 3.89.002l10.34-10.335a1.25 1.25 0 0 1 1.759-.009l3.726 3.654c1.04 1.02 2.799.396 2.964-1.051l2.665-23.388Z"/></svg>
